brandFactory_export/1.Light/Flor_1Light.svg

<?xml version="1.0" encoding="UTF-8"?>
<svg width="24px" height="24px" viewBox="0 0 24 24" version="1.1" xmlns="http://www.w3.org/2000/svg" xmlns:xlink="http://www.w3.org/1999/xlink">
    <title>1.Light/Flor_1Light</title>
    <g id="Symbols" stroke="none" stroke-width="1" fill="none" fill-rule="evenodd">
        <g id="1.Light/Flor_1Light" fill="#5CB615" fill-rule="nonzero">
            <path d="M22.3159664,12.1344538 C21.902521,12.8806723 21.1462185,13.4151261 20.0605042,13.7243697 C19.0420168,14.0168067 17.3142857,13.7882353 15.1731092,13.0857143 C15.1764706,13.0722689 15.1731092,13.0554622 15.1764706,13.0420168 C15.2033613,12.8302521 15.2201681,12.605042 15.2201681,12.3663866 C15.2201681,12.0941176 15.1966387,11.8521008 15.1630252,11.6201681 C15.1563025,11.5630252 15.1462185,11.502521 15.1361345,11.4487395 C15.0991597,11.2470588 15.0521008,11.0588235 14.994958,10.887395 C14.9781513,10.8436975 14.9613445,10.8033613 14.9445378,10.7630252 C14.8941176,10.6386555 14.8403361,10.5243697 14.7831933,10.4168067 C14.7462185,10.3462185 14.7092437,10.2823529 14.6689076,10.2218487 C14.6319328,10.1647059 14.594958,10.1142857 14.5546218,10.0672269 C14.5142857,10.0134454 14.4773109,9.95294118 14.4369748,9.90588235 C15.8689076,8.24201681 17.1932773,7.17647059 18.194958,6.8907563 C20.3596639,6.2789916 21.8823529,7.14957983 22.487395,9.3512605 C22.7865546,10.4504202 22.7294118,11.3882353 22.3159664,12.1344538 M19.2504202,16.9277311 C20.5109244,18.8302521 20.1815126,20.5848739 18.3226891,21.8655462 C16.4705882,23.1529412 14.7529412,22.8134454 13.4890756,20.9210084 C12.8705882,19.9932773 12.5277311,18.1310924 12.5344538,15.7647059 C12.5815126,15.7579832 12.6252101,15.7478992 12.6722689,15.7378151 C12.7361345,15.7243697 12.7966387,15.7142857 12.8571429,15.7008403 C12.9983193,15.6672269 13.1361345,15.6302521 13.2638655,15.5865546 C13.3042017,15.5731092 13.3445378,15.5630252 13.3815126,15.5462185 C13.5394958,15.4857143 13.6840336,15.4151261 13.8151261,15.3344538 C13.8453782,15.3176471 13.8689076,15.297479 13.8957983,15.2806723 C14,15.2134454 14.0941176,15.1428571 14.1815126,15.0689076 C14.2151261,15.0420168 14.2453782,15.0151261 14.2756303,14.9848739 C14.3596639,14.907563 14.4336134,14.8235294 14.5042017,14.7394958 C14.5210084,14.7193277 14.5411765,14.702521 14.5546218,14.6789916 C14.6352941,14.5747899 14.7058824,14.4638655 14.7697479,14.3529412 C14.7865546,14.3260504 14.7966387,14.2957983 14.8134454,14.2689076 C14.8403361,14.2151261 14.8705882,14.1647059 14.8941176,14.1109244 C17.0554622,14.9915966 18.6319328,16.0033613 19.2504202,16.9277311 M10.292437,20.9411765 C9.66386555,21.8890756 8.92436975,22.4504202 8.09747899,22.6117647 C7.27058824,22.7630252 6.38319328,22.5243697 5.45882353,21.8789916 C4.53109244,21.2369748 3.97983193,20.487395 3.82184874,19.6470588 C3.66386555,18.8067227 3.90588235,17.8991597 4.53445378,16.9512605 C5.1394958,16.0403361 6.69243697,15.0352941 8.8302521,14.1680672 C8.8605042,14.2319328 8.89411765,14.2957983 8.93109244,14.3596639 C8.94453782,14.3798319 8.95462185,14.4033613 8.96806723,14.4235294 C9.03193277,14.5344538 9.10588235,14.6386555 9.18991597,14.7428571 C9.21008403,14.7663866 9.2302521,14.7865546 9.25042017,14.810084 C9.3210084,14.8907563 9.39831933,14.9680672 9.48235294,15.0453782 C9.5092437,15.0722689 9.5394958,15.0957983 9.5697479,15.1193277 C9.67058824,15.2 9.77815126,15.2773109 9.89579832,15.3478992 C9.91260504,15.3579832 9.92268908,15.3680672 9.9394958,15.3781513 C10.0773109,15.4588235 10.2319328,15.5260504 10.4,15.5865546 C10.4302521,15.5966387 10.4638655,15.6067227 10.497479,15.6168067 C10.6352941,15.6605042 10.7865546,15.7008403 10.9445378,15.7310924 C10.9983193,15.7411765 11.0487395,15.7512605 11.102521,15.7579832 C11.1529412,15.7647059 11.2,15.7781513 11.2537815,15.7848739 C11.2537815,18.1478992 10.9109244,20.0134454 10.292437,20.9411765 M3.62689076,13.7445378 C1.46218487,13.1294118 0.601680672,11.5731092 1.20336134,9.36806723 C1.50588235,8.26554622 2.0302521,7.49243697 2.76302521,7.07226891 C3.18319328,6.8302521 3.66722689,6.7092437 4.20504202,6.7092437 C4.60504202,6.7092437 5.03529412,6.77647059 5.49243697,6.90756303 C6.47731092,7.18991597 7.82521008,8.2789916 9.23361345,9.91596639 C9.21008403,9.94285714 9.19327731,9.97647059 9.1697479,10.0067227 C9.12268908,10.0638655 9.08235294,10.1310924 9.03865546,10.194958 C8.95798319,10.3193277 8.88067227,10.4470588 8.81680672,10.5848739 C8.77983193,10.6621849 8.74621849,10.7394958 8.71596639,10.8201681 C8.66218487,10.9714286 8.61512605,11.1361345 8.58151261,11.3042017 C8.56470588,11.3848739 8.54117647,11.4588235 8.52773109,11.5394958 C8.48739496,11.7983193 8.4605042,12.0672269 8.4605042,12.3596639 C8.4605042,12.594958 8.47731092,12.8201681 8.50420168,13.0352941 C8.50420168,13.0521008 8.50420168,13.0756303 8.50756303,13.092437 C6.38319328,13.8084034 4.65546218,14.0369748 3.62689076,13.7445378 M11.8554622,1.03865546 C14.1008403,1.0487395 15.3344538,2.31596639 15.3244311,4.60504202 C15.3244311,5.67731092 14.6487395,7.29747899 13.4151261,9.18991597 C13.4117647,9.18991597 13.4084034,9.18655462 13.405042,9.18655462 C13.2,9.10252101 12.9747899,9.04537815 12.7394958,9.00168067 C12.692437,8.99159664 12.6487395,8.98487395 12.6016807,8.97815126 C12.3630252,8.94117647 12.1142857,8.91428571 11.8453782,8.91428571 C11.5697479,8.91428571 11.3142857,8.94117647 11.0722689,8.98151261 C11.0352941,8.98823529 11.0016807,8.99495798 10.9680672,9.00168067 C10.7159664,9.0487395 10.4773109,9.11260504 10.2655462,9.2 C9.0487395,7.32773109 8.35966387,5.66386555 8.36633782,4.58823529 C8.36633782,2.29915966 9.60672269,1.03865546 11.8554622,1.03865546 M11.9663866,14.810084 C11.9294118,14.8168067 11.8857143,14.8134454 11.8453782,14.8134454 L11.7478992,14.8134454 C10.5546218,14.7865546 9.84537815,14.3193277 9.55966387,13.307563 C9.48907563,13.0319328 9.45546218,12.7159664 9.45546218,12.3630252 C9.45546218,11.4218487 9.71092437,10.7462185 10.2151261,10.3563025 C10.2487395,10.3327731 10.2857143,10.3092437 10.3563025,10.2722689 C10.7327731,10.0369748 11.2369748,9.91932773 11.8453782,9.91932773 C12.4605042,9.91932773 12.9579832,10.0336134 13.3243697,10.2621849 C13.3378151,10.2689076 13.4487395,10.3428571 13.4588235,10.3529412 C13.9731092,10.7361345 14.2352941,11.4117647 14.2352941,12.3663866 C14.2352941,12.7226891 14.2016807,13.0352941 14.1310924,13.2941176 C14.1310924,13.3042017 14.1277311,13.3142857 14.1277311,13.3243697 C14.1277311,13.3277311 14.1243697,13.3310924 14.1243697,13.3344538 C13.8689076,14.2890756 13.2033613,14.7596639 11.9663866,14.810084 M23.4352941,9.07563025 C22.6823529,6.33613445 20.6319328,5.15294118 17.9294118,5.91932773 C17.1529412,6.14117647 16.3462185,6.67563025 15.5831933,7.32773109 C16.010084,6.38991597 16.3092437,5.43529412 16.3092437,4.60168067 C16.3193277,1.7512605 14.6554622,0.0403361345 11.8588235,0.0302521008 L11.8554622,0.0302521008 C9.05546218,0.0302521008 7.38151261,1.73109244 7.38151261,4.57815126 C7.37815126,5.42857143 7.67731092,6.4 8.10756303,7.3512605 C7.34789916,6.69915966 6.54117647,6.16134454 5.76134454,5.93613445 C4.44033613,5.55630252 3.23697479,5.64369748 2.2789916,6.19159664 C1.32436975,6.7394958 0.621848739,7.74453782 0.25210084,9.09243697 C-0.497478992,11.8386555 0.662184874,13.9394958 3.35798319,14.702521 C3.7512605,14.8168067 4.19495798,14.8638655 4.66218487,14.8638655 C4.89747899,14.8638655 5.14621849,14.8336134 5.38823529,14.810084 C4.70252101,15.2739496 4.09411765,15.7983193 3.71092437,16.3764706 C2.94117647,17.5394958 2.64201681,18.7294118 2.84705882,19.8252101 C3.05210084,20.9210084 3.76134454,21.9159664 4.89747899,22.6957983 C5.79831933,23.3243697 6.72268908,23.6470588 7.60336134,23.6470588 C7.82857143,23.6470588 8.05042017,23.6268908 8.26890756,23.5831933 C9.34789916,23.3747899 10.3260504,22.6521008 11.0991597,21.492437 C11.4689076,20.9378151 11.7142857,20.2084034 11.8857143,19.4285714 C12.0571429,20.2016807 12.302521,20.9243697 12.6689076,21.4722689 C13.6201681,22.897479 14.8436975,23.6268908 16.1714286,23.6268908 C17.0386555,23.6268908 17.9529412,23.3142857 18.8672269,22.6823529 C21.1831933,21.0857143 21.6268908,18.7193277 20.0571429,16.3495798 L20.0571429,16.3462185 C19.6739496,15.7714286 19.0689076,15.2504202 18.3865546,14.7865546 C18.5983193,14.8033613 18.8168067,14.8336134 19.0218487,14.8336134 C19.4890756,14.8336134 19.9294118,14.7865546 20.3193277,14.6722689 C21.6436975,14.2957983 22.6285714,13.5831933 23.1663866,12.6084034 C23.7142857,11.6537815 23.8016807,10.4268908 23.4352941,9.07563025" id="Flor_1Light"></path>
        </g>
    </g>
</svg>

<svg width="24" height="24" viewBox="0 0 24 24" xmlns="http://www.w3.org/2000/svg"><path d="M22.316 12.134c-.413.747-1.17 1.281-2.255 1.59-1.019.293-2.747.064-4.888-.638.003-.014 0-.03.003-.044a5.101 5.101 0 00-.182-2.155 3.687 3.687 0 00-.212-.47 2.128 2.128 0 00-.227-.35c-.04-.054-.078-.114-.118-.161 1.432-1.664 2.756-2.73 3.758-3.015 2.165-.612 3.687.259 4.292 2.46.3 1.1.242 2.037-.171 2.783m-3.066 4.794c1.26 1.902.932 3.657-.927 4.938-1.852 1.287-3.57.947-4.834-.945-.618-.928-.961-2.79-.955-5.156.048-.007.091-.017.138-.027.064-.014.125-.024.185-.037a4.46 4.46 0 00.407-.114c.04-.014.08-.024.118-.04.157-.061.302-.132.433-.213.03-.016.054-.037.08-.053a2.738 2.738 0 00.38-.296c.085-.077.159-.161.23-.246.016-.02.036-.036.05-.06.08-.104.15-.215.215-.326.017-.027.027-.057.043-.084.027-.054.058-.104.081-.158 2.161.88 3.738 1.892 4.356 2.817m-8.958 4.013c-.628.948-1.368 1.51-2.195 1.67-.826.152-1.714-.087-2.638-.732-.928-.642-1.48-1.392-1.637-2.232-.158-.84.084-1.748.712-2.696.605-.91 2.158-1.916 4.296-2.783.03.064.064.128.101.192.014.02.024.043.037.064.064.11.138.215.222.319l.06.067a3.05 3.05 0 00.32.31c.1.08.208.157.326.228.017.01.027.02.043.03a2.764 2.764 0 00.558.239c.138.044.29.084.448.114.053.01.104.02.158.027.05.007.097.02.15.027 0 2.363-.342 4.228-.96 5.156m-6.666-7.196c-2.165-.616-3.025-2.172-2.424-4.377.303-1.102.827-1.876 1.56-2.296.42-.242.904-.363 1.442-.363.4 0 .83.067 1.287.199.985.282 2.333 1.371 3.742 3.008-.024.027-.04.06-.064.09-.047.058-.088.125-.131.189a3.16 3.16 0 00-.323.625c-.054.151-.1.316-.134.484-.017.08-.04.155-.054.235a5.26 5.26 0 00-.02 1.553c-2.125.716-3.853.945-4.881.653m8.228-12.706c2.246.01 3.48 1.277 3.47 3.566 0 1.072-.676 2.692-1.91 4.585l-.01-.003a3.394 3.394 0 00-.666-.185 4.879 4.879 0 00-.894-.087c-.275 0-.53.026-.773.067-.037.006-.07.013-.104.02-.252.047-.49.11-.702.198-1.217-1.872-1.906-3.536-1.9-4.612 0-2.289 1.24-3.55 3.49-3.55m.11 13.772c-.037.007-.08.003-.12.003h-.098c-1.193-.026-1.903-.494-2.188-1.505a3.831 3.831 0 01-.105-.945c0-.941.256-1.617.76-2.007.034-.023.07-.047.141-.084.377-.235.881-.353 1.49-.353.615 0 1.112.115 1.478.343.014.007.125.08.135.09.514.384.776 1.06.776 2.014 0 .357-.033.67-.104.928l-.003.03c0 .004-.004.007-.004.01-.255.955-.92 1.426-2.158 1.476m11.47-5.734c-.754-2.74-2.804-3.923-5.507-3.157-.776.222-1.583.757-2.346 1.409.427-.938.726-1.893.726-2.726.01-2.85-1.654-4.562-4.45-4.572h-.004c-2.8 0-4.473 1.701-4.473 4.548-.004.85.295 1.822.726 2.773-.76-.652-1.567-1.19-2.347-1.415-1.32-.38-2.524-.292-3.482.256-.955.547-1.657 1.553-2.027 2.9-.75 2.747.41 4.847 3.106 5.61.393.115.837.162 1.304.162.235 0 .484-.03.726-.054-.685.464-1.294.988-1.677 1.566-.77 1.163-1.069 2.353-.864 3.45.205 1.095.914 2.09 2.05 2.87.901.628 1.826.951 2.706.951.226 0 .447-.02.666-.064 1.079-.208 2.057-.93 2.83-2.09.37-.555.615-1.285.787-2.064.171.773.417 1.495.783 2.043.951 1.425 2.175 2.155 3.502 2.155.868 0 1.782-.313 2.696-.945 2.316-1.596 2.76-3.963 1.19-6.332v-.004c-.383-.575-.988-1.096-1.67-1.56.211.017.43.048.635.048.467 0 .907-.047 1.297-.162 1.325-.376 2.31-1.089 2.847-2.064.548-.954.636-2.181.27-3.532" fill="#5CB615" fill-rule="nonzero"/></svg>
